shared/images/iconfont/80-kb-iconfont-qr-code-16.svg

<?xml version="1.0" encoding="UTF-8"?>
<svg width="16px" height="16px" viewBox="0 0 16 16" version="1.1" xmlns="http://www.w3.org/2000/svg" xmlns:xlink="http://www.w3.org/1999/xlink">
    <!-- Generator: sketchtool 54.1 (76490) - https://sketchapp.com -->
    <title>62D98465-C9CD-4661-9281-63136A7CA278</title>
    <desc>Created with sketchtool.</desc>
    <g id="Symbols" stroke="none" stroke-width="1" fill="none" fill-rule="evenodd">
        <g id="80-kb-iconfont-qr-code-16">
            <g>
                <rect id="icon-area" opacity="0" x="0" y="0" width="16" height="16"></rect>
                <path d="M6.72727273,0 C7.43016603,3.51420298e-05 7.99996486,0.569833966 8,1.27272727 L8,5.72727273 C7.99996486,6.43016603 7.43016603,6.99996486 6.72727273,7 L2.27272727,7 C1.56983397,6.99996486 1.00003514,6.43016603 1,5.72727273 L1,1.27272727 C1.00003514,0.569833966 1.56983397,3.51420297e-05 2.27272727,0 L6.72727273,0 Z M5.5,2 L3.5,2 C3.22385763,2 3,2.22385763 3,2.5 L3,4.5 C3,4.77614237 3.22385763,5 3.5,5 L5.5,5 C5.77614237,5 6,4.77614237 6,4.5 L6,2.5 C6,2.22385763 5.77614237,2 5.5,2 Z M4,3 L5,3 L5,4 L4,4 L4,3 Z M6.72727273,8 C7.43016603,8.00003514 7.99996486,8.56983397 8,9.27272727 L8,13.7272727 C7.99996486,14.430166 7.43016603,14.9999649 6.72727273,15 L2.27272727,15 C1.56983397,14.9999649 1.00003514,14.430166 1,13.7272727 L1,9.27272727 C1.00003514,8.56983397 1.56983397,8.00003514 2.27272727,8 L6.72727273,8 Z M5.5,10 L3.5,10 C3.22385763,10 3,10.2238576 3,10.5 L3,12.5 C3,12.7761424 3.22385763,13 3.5,13 L5.5,13 C5.77614237,13 6,12.7761424 6,12.5 L6,10.5 C6,10.2238576 5.77614237,10 5.5,10 Z M4,11 L5,11 L5,12 L4,12 L4,11 Z M14.7272727,0 C15.430166,3.51420298e-05 15.9999649,0.569833966 16,1.27272727 L16,5.72727273 C15.9999649,6.43016603 15.430166,6.99996486 14.7272727,7 L10.2727273,7 C9.56983397,6.99996486 9.00003514,6.43016603 9,5.72727273 L9,1.27272727 C9.00003514,0.569833966 9.56983397,3.51420297e-05 10.2727273,0 L14.7272727,0 Z M13.5,2 L11.5,2 C11.2238576,2 11,2.22385763 11,2.5 L11,4.5 C11,4.77614237 11.2238576,5 11.5,5 L13.5,5 C13.7761424,5 14,4.77614237 14,4.5 L14,2.5 C14,2.22385763 13.7761424,2 13.5,2 Z M12,3 L13,3 L13,4 L12,4 L12,3 Z M9,14 L11,14 L11,12 L9,12 L9,14 Z M11,12 L13,12 L13,10 L11,10 L11,12 Z M9,10 L11,10 L11,8 L9,8 L9,10 Z M13,10 L15,10 L15,8 L13,8 L13,10 Z M13,14 L15,14 L15,12 L13,12 L13,14 Z" id="qr-code" fill="#000000"></path>
            </g>
        </g>
    </g>
</svg>

<svg xmlns="http://www.w3.org/2000/svg" width="16" height="16" viewBox="0 0 16 16">
    <path fill="#000" fill-rule="nonzero" d="M6.727 0C7.43 0 8 .57 8 1.273v4.454C8 6.43 7.43 7 6.727 7H2.273C1.57 7 1 6.43 1 5.727V1.273C1 .57 1.57 0 2.273 0h4.454zM5.5 2h-2a.5.5 0 0 0-.5.5v2a.5.5 0 0 0 .5.5h2a.5.5 0 0 0 .5-.5v-2a.5.5 0 0 0-.5-.5zM4 3h1v1H4V3zm2.727 5C7.43 8 8 8.57 8 9.273v4.454C8 14.43 7.43 15 6.727 15H2.273C1.57 15 1 14.43 1 13.727V9.273C1 8.57 1.57 8 2.273 8h4.454zM5.5 10h-2a.5.5 0 0 0-.5.5v2a.5.5 0 0 0 .5.5h2a.5.5 0 0 0 .5-.5v-2a.5.5 0 0 0-.5-.5zM4 11h1v1H4v-1zM14.727 0C15.43 0 16 .57 16 1.273v4.454C16 6.43 15.43 7 14.727 7h-4.454C9.57 7 9 6.43 9 5.727V1.273C9 .57 9.57 0 10.273 0h4.454zM13.5 2h-2a.5.5 0 0 0-.5.5v2a.5.5 0 0 0 .5.5h2a.5.5 0 0 0 .5-.5v-2a.5.5 0 0 0-.5-.5zM12 3h1v1h-1V3zM9 14h2v-2H9v2zm2-2h2v-2h-2v2zm-2-2h2V8H9v2zm4 0h2V8h-2v2zm0 4h2v-2h-2v2z"/>
</svg>
